X: 1668
T: Molly In The Garden   #2
R: hornpipe, reel
%S: s:2 b:13(6+7)
M: 2/4
L: 1/16
B: O'Neill's 1850 #1668
O: J.O'Neill
Z: Compacted via repeats and multiple endings [JC]
K: G
(dc) !segno!| BcAB GAFA | EDGE \
[1,3 D2GA | B2GB c2Bc | dcBc A2 :|\
[2,4 D2(AB) | cedc BA (3GAB | A2G2 HG2 :|
|: (3AGF | E2e2 e2 (3GFE | D2d2 \
[1,3 d2 (3FED | C2c2 c2(AB) | cBAB cB :|\
[2,4 d2(ef) | gfef gfec | dcde dcB!segno!A :|
